X: 1
T: Leaving of Liverpool
M: 2/2
L: 1/4
K: A
AB | "A"c2 ce | dc BA | "D"a3  f | "A"e2 AB | ce ee |     fe dc | "E7"B4- |    B2 ||
AB | "A"c2 ce | dc BA | "D"a3  f | "A"e2 AB | ce ec | "E7"B2 cB |"A"A2- "D"A2- | "A"A2 |]
ga | "E7"b3 g | e2 fg | "D"a2 af | "A"e2 AB | ce ee |     fe dc | "E7"B4- |    B2 ||
ed | "A"c2 ce | dc BA | "D"a3  f | "A"e2 AB | ce ec | "E7"B2 cB |  "A"A4- |    A2 |]
